X:1
T:[ID 2-26b]
T:[ID 2-26b]
T:Bezeichnung standardisiert: Menuett Menuet
T:Urheber unbekannt Erstbeleg: 1775 (Datum in der schriftlichen Quelle) Datum in der hier transkribierten schriftlichen Quelle: 1776 - 1791
C:Urheber unbekannt
C:Erstbeleg: 1775 (Datum in der schriftlichen Quelle)
C:Datum in der hier transkribierten schriftlichen Quelle: 1776 - 1791
L:1/8
M:3/4
K:D
V:1 treble 
V:1
 d3 fed | dfecdf | dAFD Ec | d4 AG | F2 d2 cB | Aa ^gfed | c2 BA^GB | A6 :: A4 (3FED | BGDB, G,2 | %10
 B4 (3^GFE | cAEC A,2 | e4 (3cBA | fdAF Da | g2 f2 ec | d6 :| %16

